X:1
T:Title
%%score { ( 1 3 ) | ( 2 4 ) }
L:1/8
M:4/4
K:Eb
V:1 treble nm="Grand Piano"
V:3 treble 
V:2 bass 
V:4 bass 
V:1
 z4 z2[Q:1/4=100] EF | G2 GG [DB]2 [A,DF][B,DG] | [G,E]4 z2 [B,DF]2 | G2 FE B2 GE | F4 z2 GA | %5
 B2 [B,EG][A,DF] [G,E]2 [B,DF][B,EG] |[M:9/8] E3- E- [Ec]2- [Ec-]/c/[Ec][Ec] | %7
[M:4/4] [EB]2 [B,EG][G,E] [A,DF]2 [B,DG][A,DF] |[M:3/4] [G,E]4 z2 |[M:1/4] [EGB][EGB] | %10
[M:4/4] [EAc]2 [EAc]>[DBd] [ce]2 [DBd][EAc] |[M:3/4] [GB]2- [EG-B-][EGB] G2 |[M:1/4] G2 | %13
[M:4/4] [DF]2 [DF][EG] [FA]2 [DB][FA] |[M:3/4] G4 B2 |[M:1/4] [EGB][EGB] | %16
[M:4/4] [EAc]2 [EAc]>[DBd] [ce]2 [DBd][EAc] |[M:3/4] [GB]2- [EG-B-][EGB] [B,EG]2 | %18
[M:1/4] [B,EG][G,B,E] |[M:9/8] [D-F]6 D z z |[M:7/8] E-E-E- E- E3 |] %21
V:2
 z4 z2 [E,G,][E,A,D] | [E,B,E]2 [E,B,E][E,B,E] [B,,A,]2 B,,B,, | E,4 z2 B,,2 | %3
 [E,B,E]2 [E,A,D][E,G,] [E,G,E]2 [E,B,E][G,B,] | [B,D]4 z2 [E,B,E][F,B,D] | %5
 [G,B,E]2 B,,B,, C,2 B,,E, |[M:9/8] z3 z A,2- A,[A,,A,][A,,A,] | %7
[M:4/4] [B,,G,]2 B,,B,, B,,2 B,,B,, |[M:3/4] E,4 z2 |[M:1/4] E,E, |[M:4/4] A,2 A,>A, [A,C]2 A,A, | %11
[M:3/4] E,2 E,E, [E,B,E]2 |[M:1/4] [E,B,E]2 | %13
[M:4/4] [B,,B,]2 [B,,B,][B,,B,] [B,,B,]2 [B,,B,][B,,B,] |[M:3/4] E4 G2 |[M:1/4] E,E, | %16
[M:4/4] A,2 A,>A, [A,C]2 A,A, |[M:3/4] E,2 E,E, E,2 |[M:1/4] E,E, | %19
[M:9/8] B,,2 B,, B,, [B,,F,]2- [B,,F,][B,,B,][B,,A,] |[M:7/8] [G,B,]2 z z z z2 |] %21
V:3
 x8 | x8 | x8 | x8 | x8 | x8 |[M:9/8] .[CA]6 z3 |[M:4/4] x8 |[M:3/4] x6 |[M:1/4] x2 |[M:4/4] x8 | %11
[M:3/4] E2 z2 z2 |[M:1/4] x2 |[M:4/4] x8 |[M:3/4] x6 |[M:1/4] x2 |[M:4/4] x8 |[M:3/4] E2 z2 z2 | %18
[M:1/4] x2 |[M:9/8] B,2 B, B, B2- B[EG][DF] |[M:7/8] z2 C C B,3 |] %21
V:4
 x8 | x8 | x8 | x8 | x8 | x8 |[M:9/8] A,,6- A,, z z |[M:4/4] x8 |[M:3/4] x6 |[M:1/4] x2 | %10
[M:4/4] x8 |[M:3/4] x6 |[M:1/4] x2 |[M:4/4] x8 |[M:3/4] [E,B,]6 |[M:1/4] x2 |[M:4/4] x8 | %17
[M:3/4] x6 |[M:1/4] x2 |[M:9/8] x9 |[M:7/8] E,2- [E,-A,] [E,A,] G,3 |] %21

